X: 80
T: POLKA: Denis Murphy's
C: C: Trad.; S: Denis Murphy & Johnny O'Leary
C: Set Leaders: Olya, Anton
Z: Anton Zille ed., Oleg Naumov arr.; Bregolas at The Session
N: https://thesession.org/members/26966/sets/71310
R: Polka
M: 2/4
L: 1/8
Q: 1/4=140
K: Dmaj
|:"D"f/g/f/e/ d/c/d/B/|"D"AD FA/F/|"G"GE e>d|"A"cB cA|
"D"f/g/f/e/ d/c/d/B/|"D"AD FA/F/|"G"GE "A"e>g|1 "D"fd d2:|2 "D"fd d>B||
|:"D"Af f/e/f|"G"Ag g/f/g|"D"Af f/e/f|"G"e/f/e/d/ "A"BA|
"D"Af f/e/f|"G"Ag g>a|"A"ba f/a/a/f/|1 "D"ed d>B:|2 "D"ed d2||

